X:1
T:Contrapunctus X a 4. alla Decima (A = 415 Hz)
T:BWV 1080 The Art of Fugue
T:J. S. Bach
%%score { 1 | 2 } { 3 | 4 }
L:1/8
M:4/4
K:E
V:1 alto1 nm="Harp"
V:2 alto 
V:3 tenor nm="Harp"
V:4 bass 
V:1
 z8 | z8 | z8 | z8 | z8 | z8 | z8 | z4 z2 B2 | ^A2 d2 z2 =G2 | G2 D2 GFED | CB, ^A,2- A,^B,CD | %11
 EDEC D^EFG | AGAF G2 c2- | cBc^A B2 ^B2 | c2 F2 E2 G2 | c3 d ef g2- | g2 ag fe f2 | B8- | %18
 B^EFG A4- | A4 G4- | G c2 ^B c4- | c2 ^B2 z4 | g4 c3 d | e3 f g4 | a4 g3 f | e4- ed^e=g | %26
 gf/e/ d2- dcB^A | G=G^G^A ^Bcde | fgaf dgfg | efge cfef | defd e3 f | g3 f edc^B | c4- c^A ^B2 | %33
 cAGF E2 e2- | ed^e=g ^g4- | g4- ggfe | d2 g2- g2 f2 | e4 d4- | d2 ^ef g2 c2- | c2 de f2 B2- | %40
 B^A^Bc d2 G2- | GGc^B c4- | c2 c2 ^B4 | cA B2- BG A2- | AG c2- c^B c2- | c^Bcd e3 d | c4- c^Bcd | %47
 ^B2 z2 z4 | z8 | z2 cd efge | fgaf dgfg | ed c2- c^ABc | dc B2- B^A d2- | d2 c2 B2 ^A2 | G4 z4 | %55
 z8 | z8 | z2 G^A ^Bcde | fgaf dgfg | efed cdec | d^e f4 e2 | f2 c2 f4- | f2 ed e2 c2 | B6 B2 | %64
 e4- efef | d2 G2 A2 E2 | z2 c2 B2 e2 | ABcd ef g2- | gfed c4 | B4- BBcd | e4- e^efg | a4 z cde | %72
 f4- f=g^g^a | b4 z def | g4 c3 d | e3 f g4 | a4 g3 f | e4- edef | ge f2- fcdf | B4 A4- | %80
 AFGB e4- | e2 ^A2 d4- | d2 c2 z deg | c4 B4- | BG^A^B c2 G2 | z2 e2 d2 g2 | cdef ga b2- | %87
 bagf e4 | d4 z4 | z4 z BcB | A4 z4 | z efe d2 g2 | egag f2 b2 | e2 a2 z2 e2- | e2 =d2- d2 c2- | %95
 c2 B2- B2 A2- | A2 G2- GF f2- | fd ^e2 =e4- | e2 =dc d4- | d2 cB c=d e2- | ecde f2 A2- | %101
 AFGA Bc=dB | c2 e2 A3 B | c3 d e4 | f4 e3 =d | c4- cBcd | e2 EF GABc | =defd Bede | c=dec AF f2- | %109
 f2 f2- f2 ^e2 | fe=dc ^B2 c2 | d4- dGcB | A8- | AAGF E3 E | DG-GF EDEF | GFGA Bc=dB | c4 B2 ed | %117
 e3 ^B c4- | c6 ^B2 | !fermata!c4 z4 |] %120
V:2
 z2 ^B,2 C2 G,2 | z2 E2 D2 G2 | CDEF GA B2- | BAGF ^EC F2- | FD^EG A4- | AFG^B c4- | cBAG FE D2 | %7
 G3 F E2 D^E | =G2 ^G^A B2 A2 | G4 z4 | z8 | z8 | z8 | z2 =G2 ^G2 D2 | z2 A2 G2 c2 | %15
 FG^A^B[K:alto1] cd e2- | edcB AG A2- |[K:alto] A2 GF EFE=D | C6 DE | FEDC B,2 E2 | E4- E^EF=G | %21
 G4 z4 | z8 | c4 G3 ^A | ^B3 c d4 | G4 z4 | z8 | z8 | z8 | z8 | z8 | z8 | z8 | c4 G3 ^A | %34
[K:alto1] B3 c d4 | e4 d3 c | ^B4- BG^AB | c4- ccB^A | B4- BBAG |[K:alto] A4- AAGF | G4- GFED | %41
 E6 E2 | D6 D2 | G4 C3 D | E3 F G4 | A4 G3 F | E4- EDEF | G2 c2- cBAG | F2 B2- BAGF | %49
 E2 A2- A2 G2 | d2 z2 z4 | z2 C2 E2 B,2 | z2 G2 F2 B2 |[K:alto1] EFG^A Bc d2- | dcB^A G4- | %55
 G^E =G2 z4 | z8 | z8 | z8 |[K:alto] z2 CD EFG^A |[K:alto1] Bc=dB GcBc | ABAG FGAF | %62
 G^A B2- B2 =A2- | A2 D2 G4- | G2 c2 F4- | FFED EDC^B, | CD E2- ED C2- | C2 c^B cd e2- | %68
 e2 G2 A2 CD | EDEF G3 F | EGAB c4- | c3 B A3 G | F^ABc d4- | d3 c B3 A | B4[K:alto] E3 F | %75
 G3 A B4 | c4 B3 A | G4- GFGA | B4 z4 | z DEG C2 D2 | E3 D CG,A,C | F4- FAGD | E4 z4 | %83
 z ^EFA D2 E2 | F^E F2 A2 E2 |[K:alto1] z2 c2 B2 e2 | ABcd ef g2- | gfed c4 | ^B4 z4 | %89
[K:alto] z FGF ^E2 G2 | z FEF G2 D2 | E2 B2 F2 d2 | G2 z2 z c=dc | B2 e2 A2 B2 | z FGF E2 A2 | %95
 z =DED C2 F2 | z B,CB, A,2 A2- | AF G2- GFE=D | C2 F2- FE=DC | B,2 E2- E=DCB, | A,3 G, A,B,CD | %101
 E2 B,2 z4 | z BAG F^EFG | AGAF B=dcB | A3 =d z dcB | AGFG AGAF | B2 z2 z2 E2 | FG A2- A2 G2- | %108
 G2 C2 z FGA | Bc=dB GcBc | A4 G2 A2- | AGFG E4- | EGFE D2 C2 | ^B,C D2- DD C2- | C2 ^B,2 C2 G,2 | %115
 z2 E2 D2 G2 | CDEF GA B2- | BAGF EF G2- | G8- | !fermata!G4 z4 |] %120
V:3
 z8 | z8 | z4 z2 ^E,2 | F,2 C,2 z2 A,2 | G,2 C2 F,G,A,B, | CD E2- EDCB, | A,G, C2- C2 ^B,^A, | %7
 ^B,C D2- DC D2- | D6 C2 | B,4 z D, G,2- | G,2 F,^E, F,4 | E,F,G,^A, B,4 | A,B,CD E4 | %13
 D2 EC DG, A,2 | G,2 C2 z2 ^E,2 | F,2 C,2 G,F,E,D, | C,B,, A,,2- A,,B,,C,D, | E,F, E,4 F,G, | %18
 A,4- A,G,F,E, | D,2 E,F, G,2 C2 | C,2 z4 C2 | D4 z4 | z8 | z8 | z8 | C4 G,3 ^A, | B,3 C D4 | %27
 E4 D3 C | ^B,4- B,G,^A,B, | CD E2- EDCD | ^B,C D2- DG, C2- | CD E2- EF G2- | GFED E2 D2 | %33
 G,2 ^A,^B, C4 | B,3 ^A, B,4- | B,B,A,G, A,3 C | G4 z4 | z8 | z8 | z8 | z8 | z8 | z8 | %43
 z2 ^E,2 F,2 C,2 | z2 A,2 G,2 C2 | F,G,A,B, CD E2- | %46
 EDCB, B,/4A,/4B,/4A,/4B,/4A,/4B,/4A,/4 B,/4A,/4B,/4A,/4B,/4A,/4B,/4A,/4 | G,4- G,2 CB, | %48
 A,G, F,2- F,2 B,A, | G,F, E,2- E,D, E,2 | A,2 D,2 G,4- | G,F,E,F, G,2 D,2 | G,3 ^A, B,CB,A, | %53
 G,6 =G,2 | G,2 D,2 D2 CB, | ^A,2 D,^E, =G,^G,A,B, | CDEC ^A,DCD | ^B,G, C2 F,2 A,2 | %58
 D,2 C,2- C,2 ^B,,2 | C,2 z2 z4 | z8 | z8 | z8 | z8 | z8 | G,4 C,3 D, | E,3 F, G,4 | A,4 G,3 F, | %68
 E,4- E,D,E,F, | G,B,CD E3 D | C3 B, A,3 G, | F,CD^E F3 =E | D3 C B,3 ^A, | G,D^E=G ^G3 F | %74
 EDEB, CB,CA, | G,F, E,2- E,D,E,G,- | G,F,E,F, G,3 A, | B,6 E,2- | E,C,D,F, B,3 A, | %79
 G,4- G,E,F,B, | E,4 z2 A,2- | A,C,D,F, ^B,,3 B,, | C,D,E,G, C3 B, | A,4- A,F,G,C | F,2 CD EDC^B, | %85
 CG, G2- GDC^B, | F2 C2 z CB,A, | G,3 ^B, C2 G,2 | GDCD E2 ^B,2 | C2 G,2 B,2 ^E,2 | %90
 F,2 B,2 z B,A,B, | C2 G,2 B,2 ^B,2 | C2 B,2 A,2 F,2 | G,B,A,B, C2 G,2 | A,2 B,2- B,G,A,G, | %95
 F,2 B,2 z E,F,E, | =D,2 G,2 z C,D,^B,, | C,2 z2 C3 B, | ^A,G, F,2 B,3 =A, | G,F, E,2 A,3 G, | %100
 F,8 | E,3 F, G,A,B,G, | A,2 E,2 F,2 C,2 | z2 A,2 G,2 C2 | F,G,A,B, C=D E2- | E=DCB, A,4 | %106
 G,2 E2 =D2 C2 | B,4 E4 | A,B,CA, =DCB,A, | G,A,B,G, C2 C,2 | F,2 F2- FEDC | ^B,CDB, C=B,A,G, | %112
 F,C,D,E, F,G,A,F, | G,8 | z2 G,2 A,2 E,2 | z2 C2 B,2 E2 | A,B,CD EF G2- | GFED C3 D | %118
 E2 DC DE F2- | F2 !fermata!^E2 z4 |] %120
V:4
 z8 | z8 | z8 | z8 | z8 | z8 | z2 E,2 D,2 G,2 | z2 ^B,,2 C,2 G,,2 | D,C,B,,^A,, G,,F,, E,,2- | %9
 E,,F,,G,,^A,, B,,2 G,,2 | ^A,,2 D,2- D,G,,A,,^B,, | C,4 B,,C,D,^E, | F,4 C,D,E,F, | %13
 G,4- G,E,F,D, | E,D,C,^B,, C,A,,=B,,G,, | ^A,,^B,, C,2- C,2 E,,2 | F,,6 E,,F,, | G,,6 A,,B,, | %18
 C,2 D,^E, F,=E,D,C, | B,,2 C,D, E,D,C,B,, | A,,2 A,G, A,2 A,,2 | G,,2 G,A, G,F,E,D, | %22
 E,D,E,F, E,D,C,^B,, | C,C,,C,D, E,G,CE |[K:alto] DEFD ^B,CDB, | C2 C,2 z4 |[K:bass] z8 | z8 | z8 | %29
 z8 | G,4 C,3 D, | E,3 F, G,4 | A,4 G,3 F, | E,4- E,D,E,F, | G,4- G,F,E,D, | C,4 F,4- | %36
 F,F,E,D, E,4- | E,D,E,F, G,4- | %38
 G,A,G,F, F,/4^E,/4F,/4E,/4F,/4E,/4F,/4E,/4 F,/4E,/4F,/4E,/4D,/E,/ | %39
 F,G,F,E, E,/4D,/4E,/4D,/4E,/4D,/4E,/4D,/4 E,/4D,/4E,/4D,/4C,/D,/ | %40
 E,2 D,C, C,/4^B,,/4C,/4B,,/4C,/4B,,/4C,/4B,,/4 C,/4B,,/4C,/4B,,/4^A,,/B,,/ | C,4- C,E,,A,,G,, | %42
 F,,G,,A,,F,, D,,G,,F,,G,, | E,,F,,G,,^E,, A,,2 F,,2 | C,3 D, E,3 ^E, | F,4 E,F, G,2 | %46
 A,2 G,2- G,2 F,2- | F,F,E,D, E,4- | E,2 D,C, D,4- | D,2 C,^B,, C,4- | C,4 ^B,,4 | C,4 G,,3 ^A,, | %52
 B,,3 C, D,4 | E,4 D,3 C, | B,,4- B,,^A,,B,,C, | D,=D, ^D,2 z2 D,2 | ^E,=G, ^G,4 =G,E, | %57
 F,2 E,2 D,2 C,2 | ^B,,2 C,A,, F,,2 G,,2 | C,,2 z2 z4 | z8 | z2 F,,G,, A,,B,,C,D, | %62
 E,F,G,E, C,F,E,F, | D,E,F,D, B,,E,D,E, | C,D,E,C, ^A,,D,C,D, | ^B,,4 C,4- | C,2 A,,2 E,3 C, | %67
 F,3 F, E,3 D, | C,3 B,, A,,4 | E,4 z4 | z4 z C,D,^E, | F,4 z4 | z4 z D,^E,=G, | G,4 z4 | %74
 z2 F,2 G,2 E,2 | z2 C,2 B,,2 E,2 | A,,B,,C,D, E,F, G,2- | G,F,E,D, C,4 | B,,4 z4 | z8 | z8 | z8 | %82
 z8 | z8 | F,4 C,3 D, | E,3 F, G,4 | A,4 G,3 F, | E,4- E,D,E,F, | G,4 z G,F,G, | A,2 ^E,2 G,2 C,2 | %90
 =D,2 ^D,2 E,2 z2 | z4 z D,E,D, | C,2 E,2- E,2 =D,2- | D,2 C,2 z E,=D,E, | F,2 B,,2 C,4 | %95
 =D,2 G,,2 A,,4 | B,,2 ^E,,2 F,,4 | C,,4 z4 | z8 | z8 | z8 | z8 | z2 C,2 =D,2 A,,2 | %103
 z2 F,2 E,2 A,2 | =D,E,F,G, A,B, C2- | CB,A,G, F,4 | E,4 z4 | z8 | z8 | z8 | z8 | z8 | z8 | z8 | %114
 G,4 C,3 D, | E,3 F, G,4 | A,4 G,3 F, | E,4- E,D,E,F, | G,8 | !fermata!C,4 z4 |] %120

